round/svg/zoom_out_map.svg

<svg xmlns="http://www.w3.org/2000/svg" width="24" height="24"><path fill="none" d="M0 0h24v24H0V0z"/><path d="M15.85 3.85L17.3 5.3l-2.18 2.16c-.39.39-.39 1.03 0 1.42.39.39 1.03.39 1.42 0L18.7 6.7l1.45 1.45a.5.5 0 0 0 .85-.36V3.5c0-.28-.22-.5-.5-.5h-4.29a.5.5 0 0 0-.36.85zm-12 4.3L5.3 6.7l2.16 2.18c.39.39 1.03.39 1.42 0 .39-.39.39-1.03 0-1.42L6.7 5.3l1.45-1.45A.5.5 0 0 0 7.79 3H3.5c-.28 0-.5.22-.5.5v4.29c0 .45.54.67.85.36zm4.3 12L6.7 18.7l2.18-2.16c.39-.39.39-1.03 0-1.42-.39-.39-1.03-.39-1.42 0L5.3 17.3l-1.45-1.45a.5.5 0 0 0-.85.36v4.29c0 .28.22.5.5.5h4.29a.5.5 0 0 0 .36-.85zm12-4.3L18.7 17.3l-2.16-2.18c-.39-.39-1.03-.39-1.42 0-.39.39-.39 1.03 0 1.42l2.18 2.16-1.45 1.45a.5.5 0 0 0 .36.85h4.29c.28 0 .5-.22.5-.5v-4.29a.5.5 0 0 0-.85-.36z" fill="currentColor"/></svg>

<?xml version="1.0" encoding="utf-8"?>
<!-- Generator: Adobe Illustrator 19.1.0, SVG Export Plug-In . SVG Version: 6.00 Build 0)  -->
<svg version="1.1" xmlns="http://www.w3.org/2000/svg" xmlns:xlink="http://www.w3.org/1999/xlink" x="0px" y="0px" width="24px"
	 height="24px" viewBox="0 0 24 24" enable-background="new 0 0 24 24" xml:space="preserve">
<g id="Bounding_Boxes">
	<path fill="none" d="M0,0h24v24H0V0z"/>
</g>
<g id="Rounded" fill="currentColor">
	<g>
		<path d="M15.85,3.85L17.3,5.3l-2.18,2.16c-0.39,0.39-0.39,1.03,0,1.42l0,0c0.39,0.39,1.03,0.39,1.42,0L18.7,6.7l1.45,1.45
			C20.46,8.46,21,8.24,21,7.79V3.5C21,3.22,20.78,3,20.5,3h-4.29C15.76,3,15.54,3.54,15.85,3.85z M3.85,8.15L5.3,6.7l2.16,2.18
			c0.39,0.39,1.03,0.39,1.42,0l0,0c0.39-0.39,0.39-1.03,0-1.42L6.7,5.3l1.45-1.45C8.46,3.54,8.24,3,7.79,3H3.5C3.22,3,3,3.22,3,3.5
			v4.29C3,8.24,3.54,8.46,3.85,8.15z M8.15,20.15L6.7,18.7l2.18-2.16c0.39-0.39,0.39-1.03,0-1.42l0,0c-0.39-0.39-1.03-0.39-1.42,0
			L5.3,17.3l-1.45-1.45C3.54,15.54,3,15.76,3,16.21v4.29C3,20.78,3.22,21,3.5,21h4.29C8.24,21,8.46,20.46,8.15,20.15z M20.15,15.85
			L18.7,17.3l-2.16-2.18c-0.39-0.39-1.03-0.39-1.42,0l0,0c-0.39,0.39-0.39,1.03,0,1.42l2.18,2.16l-1.45,1.45
			C15.54,20.46,15.76,21,16.21,21h4.29c0.28,0,0.5-0.22,0.5-0.5v-4.29C21,15.76,20.46,15.54,20.15,15.85z"/>
	</g>
</g>
</svg>
